X:114
T:Scots Hall
M:6/8
L:1/8
B:Thompson's Compleat Collection of 200 Favourite Country Dances, vol. 1 (London, 1757)
Z:Transcribed and edited by Fynnian Titford-Mock, 2007
Z:abc's:AK/Fiddler's Companion
K:D
g|fdB BdB|fdB B2g|fdB BdB|ecA A2g|
fdB BdB|fdB B2g|gba faf|ecA A2 :|
g|f/g/af def|fdB B2g|f/g/af def|ecA A2g|
f/g/af def|gbg faf|geg fdf|ecA A2 :|

